usr/share/icons/sakura/48x48/places/folder-oomox-snap.svg

<svg xmlns="http://www.w3.org/2000/svg" width="48" height="48" version="1">
 <rect style="opacity:.2" width="40" height="26" x="4" y="17" rx="2" ry="2"/>
 <path style="fill:#0a191e" d="m4 34c0 1.108 0.892 2 2 2h36c1.108 0 2-0.892 2-2v-22c0-1.108-0.892-2-2-2h-20v-2c0-1.108-0.892-2-2-2h-14c-1.108 0-2 0.892-2 2"/>
 <rect style="opacity:.2" width="40" height="26" x="4" y="15" rx="2" ry="2"/>
 <rect style="fill:#e4e4e4" width="36" height="16" x="6" y="13" rx="2" ry="2"/>
 <rect style="fill:#0a191e" width="40" height="26" x="4" y="16" rx="2" ry="2"/>
 <path style="fill:#ffffff;opacity:.1" d="m6 6c-1.108 0-2 0.892-2 2v1c0-1.108 0.892-2 2-2h14c1.108 0 2 0.892 2 2v-1c0-1.108-0.892-2-2-2zm16 4v1h20c1.108 0 2 0.892 2 2v-1c0-1.108-0.892-2-2-2z"/>
 <path style="fill:#a0a0b4" d="m16 21 8.000001 10v-7zm9.000001 3 7 3.5-2-3.5zm0 1v6l4-4zm-4.000001 4-3 8 6.000001-5z"/>
</svg>

<svg xmlns="http://www.w3.org/2000/svg" width="48" height="48" version="1">
 <rect style="opacity:0.2" width="40" height="26" x="4" y="17" rx="2" ry="2"/>
 <path style="fill:#0a191e" d="M 4,34 C 4,35.108 4.892,36 6,36 H 42 C 43.108,36 44,35.108 44,34 V 12 C 44,10.892 43.108,10 42,10 H 24 C 21,10 20,6 17,6 H 6 C 4.892,6 4,6.892 4,8"/>
 <rect style="opacity:0.2" width="40" height="26" x="4" y="15" rx="2" ry="2"/>
 <rect style="fill:#e4e4e4" width="36" height="16" x="6" y="13" rx="2" ry="2"/>
 <rect style="fill:#0a191e" width="40" height="26" x="4" y="16" rx="2" ry="2"/>
 <path style="opacity:0.1;fill:#ffffff" d="M 6,6 C 4.892,6 4,6.892 4,8 V 9 C 4,7.892 4.892,7 6,7 H 17 C 20,7 21,11 24,11 H 42 C 43.108,11 44,11.892 44,13 V 12 C 44,10.892 43.108,10 42,10 H 24 C 21,10 20,6 17,6 Z"/>
 <path style="fill:#a0a0b4" d="m16 21 8.000001 10v-7zm9.000001 3 7 3.5-2-3.5zm0 1v6l4-4zm-4.000001 4-3 8 6.000001-5z"/>
</svg>
